images/pet-svg.svg

<svg width="28" height="27" fill="none" xmlns="http://www.w3.org/2000/svg"><path d="M23.5767 17.0502c-2.1973-3.2129-4.5665-6.7384-10.1054-5.2543-2.4688.6616-4.11208 1.9347-5.02361 3.8924-.80741 1.734-.95252 3.7708-1.10074 5.7107-.18385 2.378 2.2885 4.0674 4.44675 3.0206 1.7706-.8592 4.1724-2.1511 8.0257-2.4282 1.485-.1068 1.6278-.0988 2.0117-.2017 2.0059-.5375 2.9764-2.9433 1.7456-4.7395z" fill="#FBDD7B"/><path d="M21.8312 21.7897c2.0058-.5375 2.9763-2.9434 1.7455-4.7395-2.1973-3.2129-4.5665-6.7384-10.1054-5.2543l2.8876 10.7766c2.7744-.7434 4.5693-.5408 5.4723-.7828z" fill="#FECB3E"/><path d="M16.5662 16.4037l-1.0848.2906-.2906-1.0847c-.0963-.3595-.4658-.5728-.8253-.4765-.3594.0963-.5728.4658-.4765.8253l.2907 1.0847-1.0848.2907c-.3594.0963-.5728.4658-.4764.8253.0963.3594.4658.5728.8252.4764l1.0848-.2906.2907 1.0848c.0963.3594.4658.5727.8252.4764.3595-.0963.5728-.4658.4765-.8252l-.2907-1.0848 1.0848-.2907c.3595-.0963.5728-.4658.4765-.8253-.0963-.3594-.4658-.5727-.8253-.4764z" fill="#FFF8E0"/><path d="M16.1209 19.0809l-.2907-1.0848 1.0848-.2907c.3595-.0963.5728-.4658.4765-.8253-.0963-.3594-.4658-.5727-.8253-.4764l-1.0848.2906-.2906-1.0847c-.0963-.3595-.4658-.5728-.8253-.4765l1.2789 4.773c.3595-.0963.5728-.4658.4765-.8252z" fill="#FFE799"/><path d="M21.2765 6.21228c-1.3159.3526-2.0997 1.71006-1.7471 3.02598.3527 1.31594 1.7101 2.09964 3.026 1.74704 1.316-.3526 2.1431-1.72167 1.7905-3.0376-.3526-1.31592-1.7535-2.08802-3.0694-1.73542zM16.4203 8.91634c1.5118-.4051 2.3253-2.2714 1.817-4.16851-.5084-1.89711-2.146-3.10663-3.6579-2.70153-1.5118.40509-2.3253 2.2714-1.817 4.16851.5084 1.89711 2.146 3.10662 3.6579 2.70153z" fill="#FECB3E"/><path d="M9.47767 10.7766c1.51183-.4051 2.32533-2.2714 1.81703-4.16851-.5083-1.89711-2.14601-3.10663-3.65785-2.70153-1.51184.40509-2.32534 2.2714-1.81701 4.16851.50833 1.89711 2.146 3.10663 3.65783 2.70153zM3.92002 10.8629c-1.31593.3526-2.14304 1.7217-1.79044 3.0377.3526 1.3159 1.75344 2.088 3.06937 1.7354 1.31592-.3526 2.09965-1.7101 1.74705-3.026-.3526-1.3159-1.71006-2.0997-3.02598-1.7471z" fill="#FBDD7B"/></svg>

<svg width="28" height="27" viewBox="0 0 28 27" fill="none" xmlns="http://www.w3.org/2000/svg">
<path d="M23.5767 17.0502C21.3794 13.8373 19.0102 10.3118 13.4713 11.7959C11.0025 12.4575 9.35922 13.7306 8.44769 15.6883C7.64028 17.4223 7.49517 19.4591 7.34695 21.399C7.1631 23.777 9.63545 25.4664 11.7937 24.4196C13.5643 23.5604 15.9661 22.2685 19.8194 21.9914C21.3044 21.8846 21.4472 21.8926 21.8311 21.7897C23.837 21.2522 24.8075 18.8464 23.5767 17.0502Z" fill="#FBDD7B"/>
<path d="M21.8312 21.7897C23.837 21.2522 24.8075 18.8463 23.5767 17.0502C21.3794 13.8373 19.0102 10.3118 13.4713 11.7959L16.3589 22.5725C19.1333 21.8291 20.9282 22.0317 21.8312 21.7897Z" fill="#FECB3E"/>
<path d="M16.5662 16.4037L15.4814 16.6943L15.1908 15.6096C15.0945 15.2501 14.725 15.0368 14.3655 15.1331C14.0061 15.2294 13.7927 15.5989 13.889 15.9584L14.1797 17.0431L13.0949 17.3338C12.7355 17.4301 12.5221 17.7996 12.6185 18.1591C12.7148 18.5185 13.0843 18.7319 13.4437 18.6355L14.5285 18.3449L14.8192 19.4297C14.9155 19.7891 15.285 20.0024 15.6444 19.9061C16.0039 19.8098 16.2172 19.4403 16.1209 19.0809L15.8302 17.9961L16.915 17.7054C17.2745 17.6091 17.4878 17.2396 17.3915 16.8801C17.2952 16.5207 16.9257 16.3074 16.5662 16.4037Z" fill="#FFF8E0"/>
<path d="M16.1209 19.0809L15.8302 17.9961L16.915 17.7054C17.2745 17.6091 17.4878 17.2396 17.3915 16.8801C17.2952 16.5207 16.9257 16.3074 16.5662 16.4037L15.4814 16.6943L15.1908 15.6096C15.0945 15.2501 14.725 15.0368 14.3655 15.1331L15.6444 19.9061C16.0039 19.8098 16.2172 19.4403 16.1209 19.0809Z" fill="#FFE799"/>
<path d="M21.2765 6.21228C19.9606 6.56488 19.1768 7.92234 19.5294 9.23826C19.8821 10.5542 21.2395 11.3379 22.5554 10.9853C23.8714 10.6327 24.6985 9.26363 24.3459 7.9477C23.9933 6.63178 22.5924 5.85968 21.2765 6.21228Z" fill="#FECB3E"/>
<path d="M16.4203 8.91634C17.9321 8.51124 18.7456 6.64494 18.2373 4.74783C17.7289 2.85072 16.0913 1.6412 14.5794 2.0463C13.0676 2.45139 12.2541 4.3177 12.7624 6.21481C13.2708 8.11192 14.9084 9.32143 16.4203 8.91634Z" fill="#FECB3E"/>
<path d="M9.47767 10.7766C10.9895 10.3715 11.803 8.5052 11.2947 6.60809C10.7864 4.71098 9.14869 3.50146 7.63685 3.90656C6.12501 4.31165 5.31151 6.17796 5.81984 8.07507C6.32817 9.97218 7.96584 11.1817 9.47767 10.7766Z" fill="#FBDD7B"/>
<path d="M3.92002 10.8629C2.60409 11.2155 1.77698 12.5846 2.12958 13.9006C2.48218 15.2165 3.88302 15.9886 5.19895 15.636C6.51487 15.2834 7.2986 13.9259 6.946 12.61C6.5934 11.2941 5.23594 10.5103 3.92002 10.8629Z" fill="#FBDD7B"/>
</svg>
